Newaita/actions/32/calendar-go-today.svg

<svg height="32" viewBox="0 0 32 32" width="32" xmlns="http://www.w3.org/2000/svg"><g fill="#424242"><path d="m5.292969 2.894531c-1.464844 0-2.648438 1.183594-2.648438 2.648438v9.261719h2.648438v-7.941407c0-.730469.589843-1.320312 1.320312-1.320312h18.523438c.734375 0 1.324219.589843 1.324219 1.320312v18.523438c0 .734375-.589844 1.324219-1.324219 1.324219h-18.523438c-.730469 0-1.320312-.589844-1.320312-1.324219v-1.320313h-2.648438v2.644532c0 1.464843 1.183594 2.644531 2.648438 2.644531h21.167969c1.464843 0 2.644531-1.179688 2.644531-2.644531v-21.167969c0-1.464844-1.179688-2.648438-2.644531-2.648438zm0 0"/><path d="m22.492188 6.867188c.730468 0 1.324218.589843 1.324218 1.320312s-.59375 1.324219-1.324218 1.324219c-.730469 0-1.324219-.59375-1.324219-1.324219s.59375-1.320312 1.324219-1.320312zm0 0"/><path d="m3.96875 10.835938h23.816406v1.320312h-23.816406zm0 0"/><path d="m9.261719 6.867188c.730469 0 1.324219.589843 1.324219 1.320312s-.59375 1.324219-1.324219 1.324219-1.324219-.59375-1.324219-1.324219.59375-1.320312 1.324219-1.320312zm0 0"/><path d="m9.921875 20.757812v-2.648437h-6.597656c-.367188 0-.660157.296875-.660157.664063v1.320312c0 .367188.292969.664062.660157.664062zm0 0"/><path d="m9.261719 14.804688v9.261718l6.613281-4.632812zm0 0"/></g></svg>

<?xml version="1.0" encoding="UTF-8"?>
<svg xmlns="http://www.w3.org/2000/svg" xmlns:xlink="http://www.w3.org/1999/xlink" width="32px" height="32px" viewBox="0 0 32 32" version="1.1">
<g id="surface1">
<path style=" stroke:none;fill-rule:nonzero;fill:rgb(25.882354%,25.882354%,25.882354%);fill-opacity:1;" d="M 5.292969 2.894531 C 3.828125 2.894531 2.644531 4.078125 2.644531 5.542969 L 2.644531 14.804688 L 5.292969 14.804688 L 5.292969 6.863281 C 5.292969 6.132812 5.882812 5.542969 6.613281 5.542969 L 25.136719 5.542969 C 25.871094 5.542969 26.460938 6.132812 26.460938 6.863281 L 26.460938 25.386719 C 26.460938 26.121094 25.871094 26.710938 25.136719 26.710938 L 6.613281 26.710938 C 5.882812 26.710938 5.292969 26.121094 5.292969 25.386719 L 5.292969 24.066406 L 2.644531 24.066406 L 2.644531 26.710938 C 2.644531 28.175781 3.828125 29.355469 5.292969 29.355469 L 26.460938 29.355469 C 27.925781 29.355469 29.105469 28.175781 29.105469 26.710938 L 29.105469 5.542969 C 29.105469 4.078125 27.925781 2.894531 26.460938 2.894531 Z M 5.292969 2.894531 "/>
<path style=" stroke:none;fill-rule:nonzero;fill:rgb(25.882354%,25.882354%,25.882354%);fill-opacity:1;" d="M 22.492188 6.867188 C 23.222656 6.867188 23.816406 7.457031 23.816406 8.1875 C 23.816406 8.917969 23.222656 9.511719 22.492188 9.511719 C 21.761719 9.511719 21.167969 8.917969 21.167969 8.1875 C 21.167969 7.457031 21.761719 6.867188 22.492188 6.867188 Z M 22.492188 6.867188 "/>
<path style=" stroke:none;fill-rule:nonzero;fill:rgb(25.882354%,25.882354%,25.882354%);fill-opacity:1;" d="M 3.96875 10.835938 L 27.785156 10.835938 L 27.785156 12.15625 L 3.96875 12.15625 Z M 3.96875 10.835938 "/>
<path style=" stroke:none;fill-rule:nonzero;fill:rgb(25.882354%,25.882354%,25.882354%);fill-opacity:1;" d="M 9.261719 6.867188 C 9.992188 6.867188 10.585938 7.457031 10.585938 8.1875 C 10.585938 8.917969 9.992188 9.511719 9.261719 9.511719 C 8.53125 9.511719 7.9375 8.917969 7.9375 8.1875 C 7.9375 7.457031 8.53125 6.867188 9.261719 6.867188 Z M 9.261719 6.867188 "/>
<path style=" stroke:none;fill-rule:nonzero;fill:rgb(25.882354%,25.882354%,25.882354%);fill-opacity:1;" d="M 9.921875 20.757812 L 9.921875 18.109375 L 3.324219 18.109375 C 2.957031 18.109375 2.664062 18.40625 2.664062 18.773438 L 2.664062 20.09375 C 2.664062 20.460938 2.957031 20.757812 3.324219 20.757812 Z M 9.921875 20.757812 "/>
<path style=" stroke:none;fill-rule:nonzero;fill:rgb(25.882354%,25.882354%,25.882354%);fill-opacity:1;" d="M 9.261719 14.804688 L 9.261719 24.066406 L 15.875 19.433594 Z M 9.261719 14.804688 "/>
</g>
</svg>
